X: 060859
T: Fred Finn's #2
S: "First Collection of Traditional Irish Music" (M.Mulvihill)
Z: B.Black
L: 1/8
M: 4/4
R: reel
K: G
F|GB (3BAB G3 A|FAAG FADF|GBBA GBdg|fgaf gedB|
GB (3BAB G3 A|FAAG FADF|GBBA GBdg|1 fgaf g3 :|2\
fgaf g3||
f|: gb (3bbb affg|agef gede|gb (3bbb faag|agef g3f|
gb (3bbb affg|agef gede|g2 bg faag|agef gedB :|
